communes/5631.svg

<?xml version="1.0" encoding="UTF-8"?>
<svg version="1.0" viewBox="0 0 603 763" xmlns="http://www.w3.org/2000/svg" xmlns:cc="http://creativecommons.org/ns#" xmlns:dc="http://purl.org/dc/elements/1.1/" xmlns:rdf="http://www.w3.org/1999/02/22-rdf-syntax-ns#" xmlns:xlink="http://www.w3.org/1999/xlink">
<metadata>
<rdf:RDF>
<cc:Work rdf:about="">
<dc:format>image/svg+xml</dc:format>
<dc:type rdf:resource="http://purl.org/dc/dcmitype/StillImage"/>
<dc:date>07-AUG-2006</dc:date>
<dc:creator>
<cc:Agent>
<dc:title>Jérôme BLUM (wagner51)</dc:title>
</cc:Agent>
</dc:creator>
<cc:license rdf:resource="http://creativecommons.org/licenses/GPL/2.0/"/>
<dc:coverage/>
<dc:description>Gabarit pour le Projet:Blasons de WIkipédia</dc:description>
<dc:subject>
<rdf:Bag>
<rdf:li>blason suisse modèle gabarit projet blasons</rdf:li>
</rdf:Bag>
</dc:subject>
<dc:language>fr</dc:language>
<dc:title>Gabrit d'un blason suisse</dc:title>
</cc:Work>
<cc:License rdf:about="http://creativecommons.org/licenses/GPL/2.0/">
<cc:permits rdf:resource="http://web.resource.org/cc/Reproduction"/>
<cc:permits rdf:resource="http://web.resource.org/cc/Distribution"/>
<cc:requires rdf:resource="http://web.resource.org/cc/Notice"/>
<cc:permits rdf:resource="http://web.resource.org/cc/DerivativeWorks"/>
<cc:requires rdf:resource="http://web.resource.org/cc/ShareAlike"/>
<cc:requires rdf:resource="http://web.resource.org/cc/SourceCode"/>
</cc:License>
</rdf:RDF>
</metadata>
<defs>
<radialGradient id="a" cx="858.04" cy="579.93" r="300" gradientTransform="matrix(1.215 1.5316e-24 1.4647e-23 1.2667 -839.19 -490.49)" gradientUnits="userSpaceOnUse">
<stop stop-color="#fff" stop-opacity=".31373" offset="0"/>
<stop stop-color="#fff" stop-opacity=".25098" offset=".19"/>
<stop stop-color="#6b6b6b" stop-opacity=".12549" offset=".6"/>
<stop stop-opacity=".12549" offset="1"/>
</radialGradient>
</defs>
<desc>Coat of Arms of Canton of Freiburg (Fribourg)</desc>
<g>
<path d="m1.5 1.5v458.87c0 166.31 134.31 301.13 300 301.13 165.69 0 300-134.82 300-301.13v-458.87h-600z" fill="#fff"/>
<path d="m426.84 611.88c-29.527 0-57.122 25.91-84.91 45.623-27.787 19.713-40.428 5.678-40.428 5.678s-12.638 14.035-40.426-5.678-55.383-45.623-84.909-45.623c-24.079 0-51.581 19.01-51.581 57.029 0 9.104 1.718 23.131 6.34 39.182 48.434 33.666 107.2 53.408 170.58 53.408s122.14-19.742 170.58-53.406c4.622-16.053 6.34-30.076 6.34-39.184 0-38.019-27.502-57.029-51.578-57.029z" fill="#5ab532"/>
<path d="m472.07 708.09c4.622-16.053 6.34-30.076 6.34-39.184 0-38.021-27.502-57.029-51.578-57.029-29.527 0-57.122 25.91-84.91 45.623-27.787 19.713-40.428 5.678-40.428 5.678s-12.638 14.035-40.426-5.678-55.383-45.623-84.909-45.623c-24.079 0-51.581 19.01-51.581 57.029 0 9.104 1.718 23.131 6.34 39.182" fill="none" stroke="#000" stroke-width="3"/>
<path d="m369.93 633.42c0-37.795-30.64-68.436-68.437-68.436-37.793 0-68.435 30.641-68.435 68.436s53.733 127.95 68.435 127.95c14.701 0 68.437-90.154 68.437-127.95z" fill="#5ab532" stroke="#000" stroke-width="3"/>
<path d="m361.71 585.39c0.01-2.369-2.214-4.468-5.861-6.613-8.231-4.842-8.258-15.429-20.967-22.223 5.115-5.453 13.075-14.636 20.551-26.152 12.333-19 14.666-24.281 14.666-36.641l-12.666 4.308c0 9.452-9.538 31.713-31.695 57.769-4.182-0.581-12.234-0.968-20.764 2.564-12.375 5.125-10.625-0.916-16.875 3.667 0 0 13.667-12.667 26-31.667s14.666-24.281 14.666-36.641l-12.666 4.308c0 9.072-10.254 31.415-30.55 56.116-3.06-1.096-7.416-1.656-13.2-0.116-7.511 2-12.443 9-10.368 16.307l-5.704 5.704c-2.007 2.008-9.011 3.928-8.979 10.464-0.596 1.046-1.104 2.376-1.493 4.029-1.408 5.989 4.263 11.481 4.263 11.481-1.241-3.342-0.791-6.414 0.497-8.974 2.498-0.16 6.069-5.285 10.534-11.179 3.193-4.216 9.844-7.104 15.754-10.043-0.592 1.511-1.004 3.209-1.004 5.043 0 0 6.25-8 14-8 0 0 2.375 2 3.75 0.625s6.354-3.289 5.375 0.625c-2.125 8.5-11.75 7-11.75 17 0 1.32 0.135 2.407 0.37 3.303-1.355 2.918-3.339 9.437 2.339 15.114 0 0 0.435-9.708 4.051-12v-1e-3c1.416-0.523 2.743-1.418 3.616-2.291 9.938-9.938 10.375-21.125 24.625-21.125s22.885 8.447 24.567 11.974c1.407 2.949 4.962 10.595 9.743 9.364 0.996 3.86 0.526 8.283-3.103 11.912 0 0 8.332-3.001 9.583-9.584 0.787-4.141 0.219-6.928-1.305-8.427z" stroke="#000" stroke-linecap="round" stroke-linejoin="round" stroke-width="3"/>
<path d="m512.7 518.19c7.714-8.038 4.607-13.846-9.35-23.79-20-14.25-28.25-20-54-38l-45 20.25c25.408 31.344 52.826 73.147 86.81 56.825 8.979 5.168 17.186 6.71 23.905 2.112 6.783-4.64 4.501-10.584-2.365-17.397z" stroke="#000" stroke-linecap="round" stroke-linejoin="round" stroke-width="3"/>
<path d="m427.06 472.09c28.75 28.75 66.194 78.42 88 63.5 14.25-9.75-11.5-25.25-35.75-42.5s-35.225-28.264-35.225-28.264" fill="none" stroke="#fff" stroke-linecap="round" stroke-linejoin="round" stroke-width="4"/>
<path d="m476.6 459.9s-22.832-12.166-44.166-27.833c0 0 19.666 6.666 38.333 8.333 0 0-17.298-20.451-44.667-40.667-26-19.204-39-26.833-39-26.833-18.5-69-32.25-85.25-59-110s-48-54.5-58-68.5-5.25-22.5-8.75-33-11-29-34.5-42.25-42.875-9.625-63.083-5.417l-2.917 2.917v20.494l-15.75 22.006v4.583c4.75 6.917 6.5 15.917 6.5 29.167 0 23-8.25 37.5-8.25 66.75 0 73.25 42.25 145.25 112.75 190.25 5.553 3.544 11.229 6.78 17.005 9.722 0.013 6e-3 0.027 0.016 0.04 0.021 7.627 3.684 35.304 21.455 36.955 36.09 0.625 5.542 7.875 5.042 15.625 5.042s14.938 1.563 16.375-4.25c1.875 5.75 4.75 5.125 25.375 5.125 9.621 0 11.833 0.501 13.178-3.338 0.157-0.45 1.404-1.496 1.903-1.411 2.514 0.427 5.328 1.961 7.681 4.915 0.537 0.676 2.529 1.653 4.359 6e-3 3.265-2.938 9.179-9.217 16.799-21.37 23.804-3.655 46.103-10.76 65.205-20.552z" stroke="#000" stroke-linecap="round" stroke-linejoin="round" stroke-width="3"/>
<path d="m244.99 235.06c-5.276-2.979-11.666-4.659-19.893-4.659-22.666 0-31 31.667-22 65.667s28.666 94.333 197 129.67" fill="none" stroke="#fff" stroke-linecap="round" stroke-linejoin="round" stroke-width="4"/>
<path d="m250.77 265.07c8.667 16.667 38 76 148 143.67" fill="none" stroke="#fff" stroke-linecap="round" stroke-linejoin="round" stroke-width="4"/>
<path d="m201.2 287.56c2.357 10.225 28.231 1.501 28.231 1.501 18.333-6 29.442-8.663 25.388-16.332" fill="none" stroke="#fff" stroke-linecap="round" stroke-linejoin="round" stroke-width="4"/>
<path d="m229.43 289.07c8.667 15 12.951 35.333 41.333 35.333 11 0 18.79-3.478 18.79-3.478" fill="none" stroke="#fff" stroke-linecap="round" stroke-linejoin="round" stroke-width="4"/>
<path d="m210.39 318.08c14.706 30.316 55.392 6.089 55.392 6.089" fill="none" stroke="#fff" stroke-linecap="round" stroke-linejoin="round" stroke-width="4"/>
<path d="m268.78 324.36c29.012 29.013 33.887 33.735 51.604 27.053" fill="none" stroke="#fff" stroke-linecap="round" stroke-linejoin="round" stroke-width="4"/>
<path d="m364.83 417.42c-21.8-6.21-72.73-52.022-72.73-52.022s-19.372 17.398-41.186 2.366" fill="none" stroke="#fff" stroke-linecap="round" stroke-linejoin="round" stroke-width="4"/>
<path d="m242.96 332.61c23.136 29.127 30.803 41.46 49.136 32.793" fill="none" stroke="#fff" stroke-linecap="round" stroke-linejoin="round" stroke-width="4"/>
<path d="m389.24 370.13c-37.877-24.709-68.05-40.583-92.171-66.729" fill="none" stroke="#fff" stroke-linecap="round" stroke-linejoin="round" stroke-width="4"/>
<path d="m54.766 105.4s66.333-6.333 109 8.333c0 0 4.333 14.667 0 26.667s-12.333 20-18.667 23.333c1e-3 0-53-42.333-90.333-58.333z" fill="#fcef3c" stroke="#000" stroke-linecap="round" stroke-linejoin="round" stroke-width="3"/>
<path d="m164.24 138.97s-12.812-7.734-39.138-15.066c-25.875-7.207-55.683-11.743-61.847-14.558" fill="none" stroke="#000" stroke-linecap="round" stroke-linejoin="round" stroke-width="3"/>
<circle transform="translate(-.038 -.045)" cx="189.8" cy="140.78" r="12.333" fill="#fff" stroke="#000" stroke-width="3"/>
<circle transform="translate(-.038 -.045)" cx="189.8" cy="140.78" r="3.917" stroke="#000" stroke-width="3"/>
</g>
<g>
<path d="m1.5 1.5v458.87c0 166.31 134.31 301.13 300 301.13 165.69 0 300-134.82 300-301.13v-458.87h-600z" fill="url(#a)"/>
<path d="m1.5 1.5v458.87c0 166.31 134.31 301.13 300 301.13 165.69 0 300-134.82 300-301.13v-458.87h-600z" fill="none" stroke="#000" stroke-width="3"/>
</g>
</svg>

<?xml version="1.0" encoding="UTF-8" standalone="no"?>
<svg
   xmlns:dc="http://purl.org/dc/elements/1.1/"
   xmlns:cc="http://creativecommons.org/ns#"
   xmlns:rdf="http://www.w3.org/1999/02/22-rdf-syntax-ns#"
   xmlns:svg="http://www.w3.org/2000/svg"
   xmlns="http://www.w3.org/2000/svg"
   xmlns:xlink="http://www.w3.org/1999/xlink"
   xmlns:sodipodi="http://sodipodi.sourceforge.net/DTD/sodipodi-0.dtd"
   xmlns:inkscape="http://www.inkscape.org/namespaces/inkscape"
   height="763"
   width="603"
   version="1.0"
   id="svg20"
   sodipodi:version="0.32"
   inkscape:version="0.46"
   sodipodi:docname="Denens-coat_of_arms.svg"
   sodipodi:docbase="C:\Documents and Settings\Steve\Bureau\Blason Villages Suisse pour Wikipédia (par Delta-9)"
   inkscape:output_extension="org.inkscape.output.svg.inkscape">
  <metadata
     id="metadata31">
    <rdf:RDF>
      <cc:Work
         rdf:about="">
        <dc:format>image/svg+xml</dc:format>
        <dc:type
           rdf:resource="http://purl.org/dc/dcmitype/StillImage" />
        <dc:date>07-AUG-2006</dc:date>
        <dc:creator>
          <cc:Agent>
            <dc:title>Jérôme BLUM (wagner51)</dc:title>
          </cc:Agent>
        </dc:creator>
        <cc:license
           rdf:resource="http://creativecommons.org/licenses/GPL/2.0/" />
        <dc:coverage />
        <dc:description>Gabarit pour le Projet:Blasons de WIkipédia</dc:description>
        <dc:subject>
          <rdf:Bag>
            <rdf:li>blason suisse modèle gabarit projet blasons</rdf:li>
          </rdf:Bag>
        </dc:subject>
        <dc:language>fr</dc:language>
        <dc:title>Gabrit d'un blason suisse</dc:title>
      </cc:Work>
      <cc:License
         rdf:about="http://creativecommons.org/licenses/GPL/2.0/">
        <cc:permits
           rdf:resource="http://web.resource.org/cc/Reproduction" />
        <cc:permits
           rdf:resource="http://web.resource.org/cc/Distribution" />
        <cc:requires
           rdf:resource="http://web.resource.org/cc/Notice" />
        <cc:permits
           rdf:resource="http://web.resource.org/cc/DerivativeWorks" />
        <cc:requires
           rdf:resource="http://web.resource.org/cc/ShareAlike" />
        <cc:requires
           rdf:resource="http://web.resource.org/cc/SourceCode" />
      </cc:License>
    </rdf:RDF>
  </metadata>
  <defs
     id="defs29"><inkscape:perspective
   sodipodi:type="inkscape:persp3d"
   inkscape:vp_x="0 : 381.5 : 1"
   inkscape:vp_y="0 : 1000 : 0"
   inkscape:vp_z="603 : 381.5 : 1"
   inkscape:persp3d-origin="301.5 : 254.33333 : 1"
   id="perspective28" />
<linearGradient
   id="linearGradient2893">
  <stop
     style="stop-color:#ffffff;stop-opacity:0.3137255;"
     offset="0"
     id="stop2895" />
  <stop
     id="stop2897"
     offset="0.19"
     style="stop-color:#ffffff;stop-opacity:0.25098041;" />
  <stop
     style="stop-color:#6b6b6b;stop-opacity:0.1254902;"
     offset="0.60000002"
     id="stop2901" />
  <stop
     style="stop-color:#000000;stop-opacity:0.1254902;"
     offset="1"
     id="stop2899" />
</linearGradient>
<linearGradient
   id="linearGradient2955">
  <stop
     style="stop-color:white;stop-opacity:0;"
     offset="0"
     id="stop2965" />
  <stop
     style="stop-color:black;stop-opacity:0.64583331;"
     offset="1"
     id="stop2959" />
</linearGradient>
<radialGradient
   inkscape:collect="always"
   xlink:href="#linearGradient2893"
   id="radialGradient3236"
   gradientUnits="userSpaceOnUse"
   gradientTransform="matrix(1.215027,1.531577e-24,1.464684e-23,1.266667,-839.1924,-490.4894)"
   cx="858.04236"
   cy="579.93323"
   fx="858.04236"
   fy="579.93323"
   r="300" />
<inkscape:perspective
   id="perspective2554"
   inkscape:persp3d-origin="297.63751 : 280.63 : 1"
   inkscape:vp_z="595.27502 : 420.94501 : 1"
   inkscape:vp_y="0 : 1000 : 0"
   inkscape:vp_x="0 : 420.94501 : 1"
   sodipodi:type="inkscape:persp3d" />

	
	

	

		
		
		
		
		
		
		
	
		
		
		
	
			
			
		
			
			
		
			
			
			
			
			
			
			
			
			
		</defs>
  <sodipodi:namedview
     inkscape:window-height="968"
     inkscape:window-width="1280"
     inkscape:pageshadow="2"
     inkscape:pageopacity="0.0"
     guidetolerance="10.0"
     gridtolerance="10.0"
     objecttolerance="10.0"
     borderopacity="1.0"
     bordercolor="#666666"
     pagecolor="#ffffff"
     id="base"
     inkscape:zoom="0.92652193"
     inkscape:cx="173.53758"
     inkscape:cy="399.00713"
     inkscape:window-x="1280"
     inkscape:window-y="22"
     inkscape:current-layer="layer2"
     showgrid="false"
     showguides="true"
     inkscape:guide-bbox="true">
    <sodipodi:guide
       orientation="horizontal"
       position="761.5"
       id="guide1885" />
    <sodipodi:guide
       orientation="vertical"
       position="1.5"
       id="guide1887" />
    <sodipodi:guide
       orientation="horizontal"
       position="1.5"
       id="guide1889" />
    <sodipodi:guide
       orientation="vertical"
       position="601.5"
       id="guide1891" />
    <sodipodi:guide
       orientation="vertical"
       position="301.50081"
       id="guide1893" />
  </sodipodi:namedview>
  <desc
     id="desc22">Coat of Arms of Canton of Freiburg (Fribourg)</desc>
  <g
     inkscape:groupmode="layer"
     id="layer1"
     inkscape:label="Fond écu"
     style="opacity:1;display:inline"
     sodipodi:insensitive="true">
    <path
       id="path1899"
       d="M 1.5,1.49998 L 1.5,460.3679 C 1.5,626.6785 135.81456,761.5 301.49999,761.5 C 467.18543,761.5 601.5,626.6785 601.5,460.3679 L 601.5,1.49998 L 1.5,1.49998 z"
       style="fill:#ffffff;fill-opacity:1" />
  </g>
  <g
     inkscape:groupmode="layer"
     id="layer2"
     inkscape:label="Meubles"
     style="opacity:1;display:inline"
     sodipodi:insensitive="true">
    <g
       id="g2698">
      <path
         d="M 426.835,611.88 C 397.308,611.88 369.713,637.79 341.925,657.503 C 314.138,677.216 301.497,663.181 301.497,663.181 C 301.497,663.181 288.859,677.216 261.071,657.503 C 233.283,637.79 205.688,611.88 176.162,611.88 C 152.083,611.88 124.581,630.89 124.581,668.909 C 124.581,678.013 126.299,692.04 130.921,708.091 C 179.355,741.757 238.125,761.499 301.497,761.499 C 364.869,761.499 423.642,741.757 472.073,708.093 C 476.695,692.04 478.413,678.017 478.413,668.909 C 478.413,630.89 450.911,611.88 426.835,611.88 z"
         id="path2598"
         style="fill:#5ab532" />
      <path
         d="M 472.073,708.093 C 476.695,692.04 478.413,678.017 478.413,668.909 C 478.413,630.888 450.911,611.88 426.835,611.88 C 397.308,611.88 369.713,637.79 341.925,657.503 C 314.138,677.216 301.497,663.181 301.497,663.181 C 301.497,663.181 288.859,677.216 261.071,657.503 C 233.283,637.79 205.688,611.88 176.162,611.88 C 152.083,611.88 124.581,630.89 124.581,668.909 C 124.581,678.013 126.299,692.04 130.921,708.091"
         id="path2600"
         style="fill:none;stroke:#000000;stroke-width:3" />
      <path
         d="M 369.934,633.425 C 369.934,595.63 339.294,564.989 301.497,564.989 C 263.704,564.989 233.062,595.63 233.062,633.425 C 233.062,671.22 286.795,761.374 301.497,761.374 C 316.198,761.374 369.934,671.22 369.934,633.425 z"
         id="path2602"
         style="fill:#5ab532;stroke:#000000;stroke-width:3" />
    </g>
    <g
       id="g2679">
      <path
         id="path2509"
         d="M 361.711,585.388 C 361.721,583.019 359.497,580.92 355.85,578.775 C 347.619,573.933 347.592,563.346 334.883,556.552 C 339.998,551.099 347.958,541.916 355.434,530.4 C 367.767,511.4 370.1,506.119 370.1,493.759 L 357.434,498.067 C 357.434,507.519 347.896,529.78 325.739,555.836 C 321.557,555.255 313.505,554.868 304.975,558.4 C 292.6,563.525 294.35,557.484 288.1,562.067 C 288.1,562.067 301.767,549.4 314.1,530.4 C 326.433,511.4 328.766,506.119 328.766,493.759 L 316.1,498.067 C 316.1,507.139 305.846,529.482 285.55,554.183 C 282.49,553.087 278.134,552.527 272.35,554.067 C 264.839,556.067 259.907,563.067 261.982,570.374 C 261.982,570.374 258.653,573.703 256.278,576.078 C 254.271,578.086 247.267,580.006 247.299,586.542 C 246.703,587.588 246.195,588.918 245.806,590.571 C 244.398,596.56 250.069,602.052 250.069,602.052 C 248.828,598.71 249.278,595.638 250.566,593.078 C 253.064,592.918 256.635,587.793 261.1,581.899 C 264.293,577.683 270.944,574.795 276.854,571.856 C 276.262,573.367 275.85,575.065 275.85,576.899 C 275.85,576.899 282.1,568.899 289.85,568.899 C 289.85,568.899 292.225,570.899 293.6,569.524 C 294.975,568.149 299.954,566.235 298.975,570.149 C 296.85,578.649 287.225,577.149 287.225,587.149 C 287.225,588.469 287.36,589.556 287.595,590.452 C 286.24,593.37 284.256,599.889 289.934,605.566 C 289.934,605.566 290.369,595.858 293.985,593.566 L 293.985,593.565 C 295.401,593.042 296.728,592.147 297.601,591.274 C 307.539,581.336 307.976,570.149 322.226,570.149 C 336.476,570.149 345.111,578.596 346.793,582.123 C 348.2,585.072 351.755,592.718 356.536,591.487 C 357.532,595.347 357.062,599.77 353.433,603.399 C 353.433,603.399 361.765,600.398 363.016,593.815 C 363.803,589.674 363.235,586.887 361.711,585.388 z"
         style="stroke:#000000;stroke-width:3;stroke-linecap:round;stroke-linejoin:round" />
      <path
         id="path2511"
         d="M 512.699,518.19 C 520.413,510.152 517.306,504.344 503.349,494.4 C 483.349,480.15 475.099,474.4 449.349,456.4 L 404.349,476.65 C 429.757,507.994 457.175,549.797 491.159,533.475 C 500.138,538.643 508.345,540.185 515.064,535.587 C 521.847,530.947 519.565,525.003 512.699,518.19 z"
         style="stroke:#000000;stroke-width:3;stroke-linecap:round;stroke-linejoin:round" />
      <path
         id="path2513"
         d="M 427.065,472.087 C 455.815,500.837 493.259,550.507 515.065,535.587 C 529.315,525.837 503.565,510.337 479.315,493.087 C 455.065,475.837 444.09,464.823 444.09,464.823"
         style="fill:none;stroke:#ffffff;stroke-width:4;stroke-linecap:round;stroke-linejoin:round" />
      <path
         id="path2515"
         d="M 476.6,459.9 C 476.6,459.9 453.768,447.734 432.434,432.067 C 432.434,432.067 452.1,438.733 470.767,440.4 C 470.767,440.4 453.469,419.949 426.1,399.733 C 400.1,380.529 387.1,372.9 387.1,372.9 C 368.6,303.9 354.85,287.65 328.1,262.9 C 301.35,238.15 280.1,208.4 270.1,194.4 C 260.1,180.4 264.85,171.9 261.35,161.4 C 257.85,150.9 250.35,132.4 226.85,119.15 C 203.35,105.9 183.975,109.525 163.767,113.733 L 160.85,116.65 L 160.85,137.144 L 145.1,159.15 L 145.1,163.733 C 149.85,170.65 151.6,179.65 151.6,192.9 C 151.6,215.9 143.35,230.4 143.35,259.65 C 143.35,332.9 185.6,404.9 256.1,449.9 C 261.653,453.444 267.329,456.68 273.105,459.622 C 273.118,459.628 273.132,459.638 273.145,459.643 C 280.772,463.327 308.449,481.098 310.1,495.733 C 310.725,501.275 317.975,500.775 325.725,500.775 C 333.475,500.775 340.663,502.338 342.1,496.525 C 343.975,502.275 346.85,501.65 367.475,501.65 C 377.096,501.65 379.308,502.151 380.653,498.312 C 380.81,497.862 382.057,496.816 382.556,496.901 C 385.07,497.328 387.884,498.862 390.237,501.816 C 390.774,502.492 392.766,503.469 394.596,501.822 C 397.861,498.884 403.775,492.605 411.395,480.452 C 435.199,476.797 457.498,469.692 476.6,459.9 z"
         style="stroke:#000000;stroke-width:3;stroke-linecap:round;stroke-linejoin:round" />
      <path
         style="fill:none;stroke:#ffffff;stroke-width:4;stroke-linecap:round;stroke-linejoin:round"
         d="M 244.992,235.059 C 239.716,232.08 233.326,230.4 225.099,230.4 C 202.433,230.4 194.099,262.067 203.099,296.067 C 212.099,330.067 231.765,390.4 400.099,425.734"
         id="path2519" />
      <path
         style="fill:none;stroke:#ffffff;stroke-width:4;stroke-linecap:round;stroke-linejoin:round"
         d="M 250.767,265.066 C 259.434,281.733 288.767,341.066 398.767,408.733"
         id="path2521" />
      <path
         style="fill:none;stroke:#ffffff;stroke-width:4;stroke-linecap:round;stroke-linejoin:round"
         d="M 201.202,287.565 C 203.559,297.79 229.433,289.066 229.433,289.066 C 247.766,283.066 258.875,280.403 254.821,272.734"
         id="path2523" />
      <path
         style="fill:none;stroke:#ffffff;stroke-width:4;stroke-linecap:round;stroke-linejoin:round"
         d="M 229.433,289.066 C 238.1,304.066 242.384,324.399 270.766,324.399 C 281.766,324.399 289.556,320.921 289.556,320.921"
         id="path2525" />
      <path
         style="fill:none;stroke:#ffffff;stroke-width:4;stroke-linecap:round;stroke-linejoin:round"
         d="M 210.394,318.084 C 225.1,348.4 265.786,324.173 265.786,324.173"
         id="path2527" />
      <path
         style="fill:none;stroke:#ffffff;stroke-width:4;stroke-linecap:round;stroke-linejoin:round"
         d="M 268.779,324.362 C 297.791,353.375 302.666,358.097 320.383,351.415"
         id="path2529" />
      <path
         style="fill:none;stroke:#ffffff;stroke-width:4;stroke-linecap:round;stroke-linejoin:round"
         d="M 364.83,417.422 C 343.03,411.212 292.1,365.4 292.1,365.4 C 292.1,365.4 272.728,382.798 250.914,367.766"
         id="path2531" />
      <path
         style="fill:none;stroke:#ffffff;stroke-width:4;stroke-linecap:round;stroke-linejoin:round"
         d="M 242.964,332.606 C 266.1,361.733 273.767,374.066 292.1,365.399"
         id="path2533" />
      <path
         style="fill:none;stroke:#ffffff;stroke-width:4;stroke-linecap:round;stroke-linejoin:round"
         d="M 389.245,370.129 C 351.368,345.42 321.195,329.546 297.074,303.4"
         id="path2535" />
      <path
         style="fill:#fcef3c;stroke:#000000;stroke-width:3;stroke-linecap:round;stroke-linejoin:round"
         d="M 54.766,105.4 C 54.766,105.4 121.099,99.067 163.766,113.733 C 163.766,113.733 168.099,128.4 163.766,140.4 C 159.433,152.4 151.433,160.4 145.099,163.733 C 145.1,163.733 92.099,121.4 54.766,105.4 z"
         id="path2539" />
      <path
         style="fill:none;stroke:#000000;stroke-width:3;stroke-linecap:round;stroke-linejoin:round"
         d="M 164.238,138.966 C 164.238,138.966 151.426,131.232 125.1,123.9 C 99.225,116.693 69.417,112.157 63.253,109.342"
         id="path2541" />
      <circle
         transform="translate(-3.8e-2,-4.5e-2)"
         style="fill:#ffffff;stroke:#000000;stroke-width:3"
         sodipodi:ry="12.333"
         sodipodi:rx="12.333"
         sodipodi:cy="140.778"
         sodipodi:cx="189.804"
         cx="189.804"
         cy="140.778"
         r="12.333"
         id="circle2545" />
      <circle
         transform="translate(-3.8e-2,-4.5e-2)"
         style="stroke:#000000;stroke-width:3"
         sodipodi:ry="3.9170001"
         sodipodi:rx="3.9170001"
         sodipodi:cy="140.778"
         sodipodi:cx="189.804"
         cx="189.804"
         cy="140.778"
         r="3.9170001"
         id="circle2547" />
    </g>
  </g>
  <g
     inkscape:groupmode="layer"
     id="layer3"
     inkscape:label="Reflet final"
     style="display:inline"
     sodipodi:insensitive="true">
    <path
       style="fill:url(#radialGradient3236);fill-opacity:1"
       d="M 1.5,1.5 L 1.5,460.3679 C 1.5,626.67854 135.81454,761.5 301.49993,761.5 C 467.1854,761.5 601.5,626.67854 601.5,460.3679 L 601.5,1.5 L 1.5,1.5 z "
       id="path2346" />
  </g>
  <g
     inkscape:groupmode="layer"
     id="layer4"
     inkscape:label="Contour final"
     style="display:inline"
     sodipodi:insensitive="true">
    <path
       style="fill:none;fill-opacity:1;stroke:#000000;stroke-width:3;stroke-miterlimit:4;stroke-dasharray:none;stroke-opacity:1"
       d="M 1.5,1.5 L 1.5,460.36794 C 1.5,626.67854 135.81454,761.5 301.49993,761.5 C 467.1854,761.5 601.5,626.67854 601.5,460.36794 L 601.5,1.5 L 1.5,1.5 z "
       id="path3239" />
  </g>
</svg>
